ref/default_profile.xmp
<x:xmpmeta xmlns:x="adobe:ns:meta/" x:xmptk="Adobe XMP Core 7.0">
 <rdf:RDF xmlns:rdf="http://www.w3.org/1999/02/22-rdf-syntax-ns#">
  <rdf:Description rdf:about=""
    xmlns:crs="http://ns.adobe.com/camera-raw-settings/1.0/"
    crs:LensProfileEnable="1"
    crs:LensProfileSetup="Custom"
    crs:LensProfileName="Adobe (Nikon AF-S NIKKOR 14-24mm f/2.8G ED)"
    crs:LensProfileFilename="NIKON D3X (Nikon FX 14-24mm f2.8 G ED) - RAW.lcp"
    crs:LensProfileDigest="F1CD1D17DB104625E68F140EE09FFC50"
    crs:LensProfileIsEmbedded="False"
    crs:LensProfileDistortionScale="100"
    crs:LensProfileVignettingScale="100"
    crs:Highlights2012="-95"
    crs:Shadows2012="+20"
    crs:Contrast2012="+25"
    crs:Blacks2012="-20"
    crs:Whites2012="+10"
    crs:Vibrance="+20"
    crs:AutoLateralCA="1"
    crs:SaturationAdjustmentOrange="-20"
    crs:SaturationAdjustmentYellow="-20"
    crs:SaturationAdjustmentBlue="-15">
  </rdf:Description>
 </rdf:RDF>
</x:xmpmeta>
