ref/test-acr-profile.xmp
<x:xmpmeta xmlns:x="adobe:ns:meta/" x:xmptk="Adobe XMP Core 7.0">
 <rdf:RDF xmlns:rdf="http://www.w3.org/1999/02/22-rdf-syntax-ns#">
  <rdf:Description rdf:about=""
    xmlns:crs="http://ns.adobe.com/camera-raw-settings/1.0/"
    crs:Version="15.0"
    crs:ProcessVersion="11.0"
    crs:Exposure2012="+0.50"
    crs:Contrast2012="+25"
    crs:Highlights2012="-100"
    crs:Shadows2012="+100"
    crs:Vibrance="+20"
    crs:HDREditMode="1"
    crs:HueAdjustmentBlue="0"
    crs:SaturationAdjustmentBlue="-15"
    crs:LuminanceAdjustmentBlue="0">
  </rdf:Description>
 </rdf:RDF>
</x:xmpmeta>
